images/mana.svg

<svg height="250" viewBox="0 0 250 250" width="250" xmlns="http://www.w3.org/2000/svg" xmlns:xlink="http://www.w3.org/1999/xlink"><linearGradient id="a" gradientUnits="userSpaceOnUse" x1="213.5" x2="36.5" y1="36.5" y2="213.5"><stop offset="0" stop-color="#ff2d55"/><stop offset="1" stop-color="#ffbc5b"/></linearGradient><linearGradient id="b"><stop offset="0" stop-color="#a524b3"/><stop offset="1" stop-color="#ff2d55"/></linearGradient><linearGradient id="c" gradientTransform="matrix(78.054688 0 0 93.664062 88.480469 81.175781)" gradientUnits="userSpaceOnUse" x1=".5" x2=".5" xlink:href="#b" y1="0" y2="1"/><linearGradient id="d" gradientTransform="matrix(57.261719 0 0 68.6875 167.535156 131.128906)" gradientUnits="userSpaceOnUse" x1=".5" x2=".5" xlink:href="#b" y1="0" y2="1"/><path d="m250 125c0 69.035156-55.964844 125-125 125s-125-55.964844-125-125 55.964844-125 125-125 125 55.964844 125 125zm0 0" fill="url(#a)"/><g fill-rule="evenodd"><path d="m88.480469 81.175781v93.664063h78.054687zm0 0" fill="url(#c)"/><path d="m10.429688 174.839844h78.050781v-93.664063zm0 0" fill="#fff"/><path d="m24.976562 199.820312c7.132813 9.4375 15.539063 17.84375 24.980469 24.976563h149.863281c9.4375-7.132813 17.84375-15.539063 24.976563-24.976563zm0 0" fill="#fc9965"/><path d="m49.953125 224.796875c44.40625 33.300781 105.460937 33.300781 149.863281 0zm0 0" fill="#ff2d55"/><path d="m167.535156 131.128906v68.6875h57.261719zm0 0" fill="url(#d)"/><path d="m167.535156 174.839844h-157.105468c3.859374 8.863281 8.742187 17.246094 14.546874 24.976562l142.621094.003906v-24.980468zm0 0" fill="#ffbc5b"/><path d="m110.335938 199.820312h57.199218v-68.6875zm0 0" fill="#fff"/></g><path d="m198.757812 81.175781c0 17.242188-13.980468 31.222657-31.222656 31.222657-17.242187 0-31.222656-13.980469-31.222656-31.222657 0-17.242187 13.980469-31.222656 31.222656-31.222656 17.242188 0 31.222656 13.980469 31.222656 31.222656zm0 0" fill="#ffc95b"/><path d="m104.09375 46.832031c0 8.621094-6.992188 15.609375-15.613281 15.609375-8.621094 0-15.609375-6.988281-15.609375-15.609375 0-8.621093 6.988281-15.609375 15.609375-15.609375 8.621093 0 15.613281 6.988282 15.613281 15.609375zm0 0" fill="#ffc95b"/></svg>

<svg xmlns="http://www.w3.org/2000/svg" xmlns:xlink="http://www.w3.org/1999/xlink" width="250px" height="250px" viewBox="0 0 250 250" version="1.1">
<defs>
<linearGradient id="linear0" gradientUnits="userSpaceOnUse" x1="0.854" y1="0.146" x2="0.146" y2="0.854" gradientTransform="matrix(250,0,0,250,0,0)">
<stop offset="0" style="stop-color:rgb(100%,17.647059%,33.333334%);stop-opacity:1;"/>
<stop offset="1" style="stop-color:rgb(100%,73.725492%,35.686275%);stop-opacity:1;"/>
</linearGradient>
<linearGradient id="linear1" gradientUnits="userSpaceOnUse" x1="0.5" y1="0" x2="0.5" y2="1" gradientTransform="matrix(78.054688,0,0,93.664062,88.480469,81.175781)">
<stop offset="0" style="stop-color:rgb(64.705884%,14.117648%,70.19608%);stop-opacity:1;"/>
<stop offset="1" style="stop-color:rgb(100%,17.647059%,33.333334%);stop-opacity:1;"/>
</linearGradient>
<linearGradient id="linear2" gradientUnits="userSpaceOnUse" x1="0.5" y1="0" x2="0.5" y2="1" gradientTransform="matrix(57.261719,0,0,68.6875,167.535156,131.128906)">
<stop offset="0" style="stop-color:rgb(64.705884%,14.117648%,70.19608%);stop-opacity:1;"/>
<stop offset="1" style="stop-color:rgb(100%,17.647059%,33.333334%);stop-opacity:1;"/>
</linearGradient>
</defs>
<g id="surface1">
<path style=" stroke:none;fill-rule:nonzero;fill:url(#linear0);" d="M 250 125 C 250 194.035156 194.035156 250 125 250 C 55.964844 250 0 194.035156 0 125 C 0 55.964844 55.964844 0 125 0 C 194.035156 0 250 55.964844 250 125 Z M 250 125 "/>
<path style=" stroke:none;fill-rule:evenodd;fill:url(#linear1);" d="M 88.480469 81.175781 L 88.480469 174.839844 L 166.535156 174.839844 Z M 88.480469 81.175781 "/>
<path style=" stroke:none;fill-rule:evenodd;fill:rgb(100%,100%,100%);fill-opacity:1;" d="M 10.429688 174.839844 L 88.480469 174.839844 L 88.480469 81.175781 Z M 10.429688 174.839844 "/>
<path style=" stroke:none;fill-rule:evenodd;fill:rgb(98.823529%,60.000002%,39.607844%);fill-opacity:1;" d="M 24.976562 199.820312 C 32.109375 209.257812 40.515625 217.664062 49.957031 224.796875 L 199.820312 224.796875 C 209.257812 217.664062 217.664062 209.257812 224.796875 199.820312 Z M 24.976562 199.820312 "/>
<path style=" stroke:none;fill-rule:evenodd;fill:rgb(100%,17.647059%,33.333334%);fill-opacity:1;" d="M 49.953125 224.796875 C 94.359375 258.097656 155.414062 258.097656 199.816406 224.796875 Z M 49.953125 224.796875 "/>
<path style=" stroke:none;fill-rule:evenodd;fill:url(#linear2);" d="M 167.535156 131.128906 L 167.535156 199.816406 L 224.796875 199.816406 Z M 167.535156 131.128906 "/>
<path style=" stroke:none;fill-rule:evenodd;fill:rgb(100%,73.725492%,35.686275%);fill-opacity:1;" d="M 167.535156 174.839844 L 10.429688 174.839844 C 14.289062 183.703125 19.171875 192.085938 24.976562 199.816406 L 167.597656 199.820312 L 167.597656 174.839844 Z M 167.535156 174.839844 "/>
<path style=" stroke:none;fill-rule:evenodd;fill:rgb(100%,100%,100%);fill-opacity:1;" d="M 110.335938 199.820312 L 167.535156 199.820312 L 167.535156 131.132812 Z M 110.335938 199.820312 "/>
<path style=" stroke:none;fill-rule:nonzero;fill:rgb(100%,78.823531%,35.686275%);fill-opacity:1;" d="M 198.757812 81.175781 C 198.757812 98.417969 184.777344 112.398438 167.535156 112.398438 C 150.292969 112.398438 136.3125 98.417969 136.3125 81.175781 C 136.3125 63.933594 150.292969 49.953125 167.535156 49.953125 C 184.777344 49.953125 198.757812 63.933594 198.757812 81.175781 Z M 198.757812 81.175781 "/>
<path style=" stroke:none;fill-rule:nonzero;fill:rgb(100%,78.823531%,35.686275%);fill-opacity:1;" d="M 104.09375 46.832031 C 104.09375 55.453125 97.101562 62.441406 88.480469 62.441406 C 79.859375 62.441406 72.871094 55.453125 72.871094 46.832031 C 72.871094 38.210938 79.859375 31.222656 88.480469 31.222656 C 97.101562 31.222656 104.09375 38.210938 104.09375 46.832031 Z M 104.09375 46.832031 "/>
</g>
</svg>
